svgs/sharp-solid/list-tree.svg

<svg xmlns="http://www.w3.org/2000/svg" viewBox="0 0 512 512"><!--! Font Awesome Pro 6.6.0 by @fontawesome - https://fontawesome.com License - https://fontawesome.com/license (Commercial License) Copyright 2024 Fonticons, Inc. --><path d="M96 48L0 48l0 96 24 0 0 112 0 160 0 24 24 0 80 0 0 24 96 0 0-96-96 0 0 24-56 0 0-112 56 0 0 24 96 0 0-96-96 0 0 24-56 0 0-88 24 0 0-96zm64 16l0 64 32 0 288 0 32 0 0-64-32 0L192 64l-32 0zM288 224l0 64 32 0 160 0 32 0 0-64-32 0-160 0-32 0zm0 160l0 64 32 0 160 0 32 0 0-64-32 0-160 0-32 0z"/></svg>

<svg xmlns="http://www.w3.org/2000/svg" viewBox="0 0 512 512"><!--! Font Awesome Pro 6.4.2 by @fontawesome - https://fontawesome.com License - https://fontawesome.com/license (Commercial License) Copyright 2023 Fonticons, Inc. --><path d="M96 48H0v96H24V256 416v24H48h80v24h96V368H128v24H72V280h56v24h96V208H128v24H72V144H96V48zm64 16v64h32H480h32V64H480 192 160zM288 224v64h32H480h32V224H480 320 288zm0 160v64h32H480h32V384H480 320 288z"/></svg>
